src/assets/finTech.svg

<svg width="94" height="94" viewBox="0 0 94 94" fill="none" xmlns="http://www.w3.org/2000/svg">
<g clip-path="url(#clip0_433_328)">
<path d="M19.4358 13.725C19.4358 11.293 19.4155 8.86088 19.4641 6.42879C19.537 2.78067 22.2419 0.016205 25.878 0.00809805C39.95 -0.027032 54.0192 -0.027032 68.0858 0.00809805C71.73 0.00809805 74.4065 2.79283 74.4794 6.44906C74.528 8.88115 74.5078 11.3132 74.5199 13.725C74.3012 14.5601 73.5522 14.7992 72.9003 15.1559C65.709 19.1445 63.2998 27.1501 67.1667 34.4221C67.9985 35.898 68.2852 37.6199 67.9765 39.2862C67.689 40.859 67.3773 42.4358 67.2032 44.0936C68.3127 43.9842 68.9523 42.9587 69.9929 43.2181C70.7137 43.9842 70.2723 44.7179 69.8998 45.4191C67.5538 49.9359 64.817 54.2383 61.7207 58.2767C61.251 58.8807 60.9109 59.7238 59.8986 59.6266C59.7974 59.5374 59.6677 59.4401 59.6515 59.3185C59.1737 55.7474 56.8698 53.7936 53.7115 52.5938C52.4441 51.7507 50.7759 51.5156 49.8892 50.0847C49.5976 49.3551 49.6664 48.5808 49.6381 47.8188C49.6197 47.266 49.7106 46.715 49.9054 46.1974C52.5737 43.8018 53.1446 40.6685 53.0029 37.2798C53.258 36.1529 53.9828 35.2125 54.2906 34.1059C55.0154 31.5157 53.833 29.793 51.1687 29.7444C47.0832 29.6714 42.9975 29.7444 38.8836 29.72C38.9362 30.5307 39.4749 30.7861 39.8231 31.155C40.5925 31.9657 40.9245 32.8899 40.3212 33.9032C39.564 35.1639 39.9608 36.2097 40.7747 37.2271C40.9315 37.5268 41.0094 37.8616 41.0013 38.1999C40.6855 41.3535 41.7666 43.972 44.0179 46.1488C44.2193 46.6651 44.317 47.216 44.3054 47.7701C44.2771 48.5484 44.358 49.3429 44.0462 50.0928C43.0663 51.5723 41.2889 51.8358 39.9487 52.7681C35.8753 54.3287 34.2152 57.2796 34.5998 61.6087C34.8185 64.0043 34.8023 64.1664 37.3249 64.1745C42.2891 64.1745 47.2492 64.1745 52.2134 64.1745C53.1488 64.1745 54.0922 64.0935 55.0073 64.3894C56.3394 65.2893 55.1732 65.9256 54.6832 66.4526C51.9194 69.4246 48.9684 72.2164 45.8482 74.8109C38.0991 81.2125 29.6419 86.7031 20.6425 91.1747C19.6059 89.8979 19.4277 88.4021 19.4277 86.8213C19.4277 71.6721 19.4277 56.5243 19.4277 41.3778C19.4972 41.2611 19.5985 41.1667 19.7198 41.1057C19.841 41.0447 19.977 41.0195 20.112 41.0333C22.7237 41.6616 24.8049 43.2303 26.9024 44.5436C26.8209 43.9379 26.695 43.3391 26.5257 42.7519C25.6552 39.2011 25.8253 35.9867 27.5016 32.4764C30.4777 26.2381 27.4814 18.6946 21.3592 15.3505C20.6263 14.9411 19.699 14.7222 19.4358 13.725Z" fill="#2ECC82"/>
<path d="M59.9874 59.5536C63.9272 54.9894 66.9317 49.805 69.8187 44.5558C69.9528 44.1805 70.0279 43.7867 70.0413 43.3884C71.3816 41.5238 72.8231 40.8712 74.5197 41.3616C74.5197 56.4703 74.5088 71.5762 74.4872 86.6794C74.4872 91.5436 72.0133 93.996 67.1463 94C53.5413 94 39.9334 94 26.323 94C23.9381 94 21.9905 93.238 20.6543 91.1626C20.711 90.3032 21.4642 90.1614 22.0351 89.8655C31.2042 85.1897 39.7647 79.4039 47.5243 72.6382C50.3141 70.1818 52.9096 67.5633 55.4646 64.8839C55.918 64.2516 56.6307 64.1948 57.2866 64.2273C58.9427 64.3164 59.3638 63.4166 59.3112 61.9776C59.291 61.1385 59.1856 60.2022 59.9874 59.5536Z" fill="#1BB16A"/>
<path d="M74.5198 41.3535C72.6896 41.2846 71.5396 42.7236 70.0415 43.3803C68.8267 43.7856 67.9602 44.8679 66.4499 45.1597C66.79 43.1087 67.0654 41.163 67.442 39.2376C67.7376 37.7297 67.6971 36.3313 66.8589 34.9734C62.2551 27.5109 65.6442 17.815 73.2606 14.3817C73.6898 14.1912 74.0987 13.9764 74.5198 13.7453C83.7923 10.7579 91.3843 16.5828 93.4169 23.5669C96.5024 34.1708 86.8494 44.272 76.0787 41.7467C75.5564 41.6251 75.0381 41.4873 74.5198 41.3535Z" fill="#EAEAEA"/>
<path d="M19.4349 13.7251C25.7313 16.4571 29.1771 21.1389 29.1528 28.1311C29.1734 30.5068 28.4776 32.8335 27.1565 34.8072C26.1766 36.2462 26.1847 37.6203 26.4965 39.1809C26.9014 41.1347 27.1646 43.1087 27.5331 45.3422C25.3466 44.1261 23.4152 43.0601 21.4595 42.0062C20.8278 41.6616 20.2447 41.0779 19.4349 41.3779C9.71705 44.3734 2.26254 38.0256 0.50118 31.3455C-0.14772 28.9128 -0.156628 26.3533 0.475083 23.916C1.10679 21.4787 2.35766 19.2465 4.10623 17.4365C5.8548 15.6265 8.04155 14.3002 10.4537 13.5866C12.8659 12.8731 15.4215 12.7965 17.872 13.3643L19.4349 13.7251Z" fill="#464646"/>
<path d="M59.9872 59.5536C59.967 59.7563 59.9345 59.9589 59.9305 60.1535C59.8819 61.6209 60.3637 63.4733 59.6511 64.4461C58.8737 65.5122 56.8977 64.6123 55.4683 64.892C48.9371 64.8677 42.41 64.7947 35.8788 64.8636C34.3685 64.8636 33.7895 64.4826 34.0041 62.9626C34.0549 62.223 34.0549 61.4808 34.0041 60.7413C34.0041 55.7839 35.2917 53.976 40.0535 52.229C41.1103 52.5006 41.6732 53.3802 42.2927 54.1422C43.6168 55.7312 43.8029 55.7636 45.2242 54.3084C45.5994 53.8376 46.0153 53.4008 46.4672 53.0032C46.6529 52.9487 46.8496 52.9421 47.0386 52.9839C47.2276 53.0257 47.4029 53.1146 47.5485 53.2423C50.0022 55.5325 50.0022 55.5285 52.4074 53.2059C52.8366 52.8005 53.2171 52.3263 53.8649 52.2249C57.4727 53.368 59.8941 55.488 59.9872 59.5536Z" fill="#383838"/>
<path d="M43.7548 46.1893C40.3252 44.0856 40.3131 40.7415 40.5155 37.3122C40.9407 36.7528 41.5724 36.7609 42.1676 36.7528C43.0803 36.773 43.9866 36.5963 44.825 36.2347C45.6634 35.8731 46.4143 35.3351 47.0265 34.6572C47.9538 33.6519 48.9822 33.5465 50.0634 34.3937C51.2092 35.2895 52.756 35.707 53.3958 37.2068C53.6347 40.6685 53.6467 44.0531 50.1847 46.1893C49.7769 46.6367 49.2804 46.994 48.7268 47.2385C48.1733 47.483 47.5748 47.6093 46.9698 47.6093C46.3647 47.6093 45.7663 47.483 45.2127 47.2385C44.6592 46.994 44.1627 46.6367 43.7548 46.1893Z" fill="#EFC27B"/>
<path d="M53.3997 37.1987C52.9462 36.9068 52.4887 36.6271 52.0392 36.3312C51.031 35.6624 50.1037 34.7342 48.9943 34.3734C47.5812 33.9194 47.1803 35.6462 46.1923 36.238C44.4026 37.3162 42.4753 37.2798 40.5236 37.3041C39.0983 36.4042 38.6287 35.2976 39.7705 33.8384C40.5803 32.8169 40.2442 32.0143 39.3089 31.2928C38.6691 30.7983 38.0941 30.247 37.5312 29.7849C37.8795 28.885 38.4343 29.189 38.827 29.185C42.9409 29.1607 47.0548 29.1607 51.1687 29.185C54.408 29.185 56.0276 31.7022 54.7117 34.7058C54.3513 35.5773 53.841 36.388 53.3997 37.1987Z" fill="#57575C"/>
<path d="M46.7668 8.11098C44.6167 8.11098 42.4666 8.03801 40.3246 8.1353C38.9155 8.20015 38.8751 7.44621 38.8508 6.38825C38.8266 5.3303 39.1545 4.83577 40.3287 4.85198C44.7585 4.90468 49.1881 4.92089 53.6178 4.85198C55.0229 4.83172 55.0674 5.54513 55.0876 6.60309C55.1078 7.66104 54.7881 8.17583 53.6139 8.13935C51.3342 8.06233 49.0505 8.11098 46.7668 8.11098Z" fill="#E5E5E6"/>
<path d="M47.2535 53.4126L46.5609 53.1735C45.0101 52.8046 43.9979 51.9088 43.7266 50.2752L43.7875 47.8229C45.8993 47.987 48.0206 47.987 50.1324 47.8229C50.1526 48.6336 50.177 49.4443 50.1972 50.255C49.934 51.9817 48.7598 52.8492 47.2535 53.4126Z" fill="#EEC07A"/>
<path d="M43.7382 50.2712L46.5726 53.1694C46.3135 54.4706 45.1352 55.034 44.3456 55.8933C43.6451 56.6554 43.1309 55.9501 42.726 55.4677C41.819 54.4138 40.9605 53.3153 40.0859 52.225L43.7382 50.2712Z" fill="#FFF7F7"/>
<path d="M47.2539 53.4126L50.2097 50.2712L53.8782 52.2331C52.9469 53.3599 51.9993 54.4827 51.0883 55.6258C50.4647 56.4 49.902 56.3271 49.2866 55.6258C48.6711 54.9246 47.9342 54.1422 47.2539 53.4126Z" fill="#FFF7F7"/>
<path d="M29.1373 6.47337C29.4207 7.85155 28.7323 8.13935 27.4771 8.15151C26.2219 8.16367 25.9142 7.71373 25.8899 6.53012C25.8615 5.19248 26.3313 4.81956 27.6149 4.83982C28.8418 4.85198 29.3681 5.22896 29.1373 6.47337Z" fill="#E5E5E6"/>
<path d="M32.4173 6.25855C32.1662 4.88442 33.0732 4.9209 34.0976 4.84388C35.5917 4.72633 35.612 5.54919 35.6727 6.672C35.7578 8.27313 34.7617 8.06639 33.7413 8.13125C32.2512 8.22853 32.3687 7.27192 32.4173 6.25855Z" fill="#E5E5E6"/>
<path d="M50.1433 47.8188C49.1728 48.3583 48.081 48.6413 46.9708 48.6413C45.8607 48.6413 44.7689 48.3583 43.7984 47.8188C43.7984 47.2756 43.7701 46.7324 43.7539 46.1974C44.7395 46.7399 45.846 47.0244 46.9708 47.0244C48.0957 47.0244 49.2024 46.7399 50.188 46.1974C50.1718 46.7324 50.1555 47.2756 50.1433 47.8188Z" fill="#ECB55D"/>
<path d="M47.0272 81.0411C48.169 81.0411 49.319 80.9641 50.4527 81.0411C51.2662 81.0948 52.0285 81.4574 52.5838 82.0548C53.1392 82.6522 53.4458 83.4394 53.4409 84.2555C53.4534 85.0742 53.1473 85.8657 52.5874 86.4625C52.0275 87.0594 51.2575 87.4148 50.4405 87.4537C48.0923 87.5847 45.7385 87.578 43.3911 87.4334C41.65 87.3118 40.6336 86.1241 40.5162 84.3487C40.4725 83.5304 40.7499 82.7274 41.2892 82.111C41.8286 81.4946 42.5871 81.1136 43.4032 81.0492C44.6017 80.9519 45.8206 81.0451 47.0272 81.0411Z" fill="#E5E5E6"/>
<path d="M79.2248 17.8312C80.0913 17.8677 81.0873 17.5515 81.0265 19.0189C80.9982 19.6512 81.7554 19.4769 82.1562 19.6026C83.2755 19.8992 84.2494 20.5919 84.8975 21.5523C85.3955 22.3428 86.3511 23.5345 85.4198 24.1263C84.6991 24.5843 83.1605 24.937 82.2697 23.4858C81.6826 22.5252 77.7265 22.3225 76.7912 23.0359C76.5345 23.2027 76.3359 23.4451 76.2228 23.7298C76.1096 24.0144 76.0875 24.3271 76.1595 24.6249C76.2114 24.9626 76.377 25.2725 76.6289 25.5033C76.8807 25.734 77.2036 25.8717 77.5443 25.8936C78.5484 25.9625 79.5689 25.9179 80.569 25.9382C83.3143 25.9909 85.355 27.6204 85.768 30.0768C86.1729 32.4116 84.7355 34.5761 82.1926 35.4638C81.5812 35.6787 80.9415 35.6584 80.9091 36.6475C80.8767 37.7297 79.8767 37.2393 79.3179 37.2433C78.7591 37.2474 77.7711 37.7176 77.7671 36.5988C77.7671 35.5652 77.0342 35.6341 76.443 35.4598C75.7896 35.2867 75.1817 34.9734 74.6614 34.5415C74.1412 34.1096 73.7213 33.5695 73.4305 32.9588C73.139 32.3508 72.4424 31.3374 73.147 31.001C73.9851 30.5956 75.3822 30.2795 76.0867 31.2442C77.6173 33.3317 79.65 32.2292 81.4599 32.2657C82.2049 32.2657 82.6746 31.4347 82.541 30.5875C82.5105 30.2108 82.3394 29.8594 82.0617 29.6033C81.7841 29.3472 81.4203 29.2051 81.0427 29.2053C79.9697 29.1526 78.8886 29.2053 77.8035 29.1688C75.2363 29.0715 73.2401 27.3326 72.8959 24.9329C72.5679 22.6468 73.961 20.539 76.3904 19.6634C77.0626 19.4243 77.767 19.4324 77.7872 18.342C77.8358 17.4624 78.7632 18.0015 79.2248 17.8312Z" fill="#5C5C5C"/>
<path d="M19.6633 24.2843C18.6794 24.3816 18.0437 24.2843 17.4606 23.4736C16.7763 22.4846 12.8769 22.367 11.9821 23.1372C11.7322 23.3152 11.5462 23.5689 11.4514 23.8609C11.3566 24.1528 11.3581 24.4676 11.4558 24.7586C11.547 25.0885 11.7421 25.3802 12.0119 25.5905C12.2818 25.8007 12.6119 25.9184 12.9538 25.926C13.962 25.9665 14.9785 25.926 15.9867 25.9544C18.5538 25.999 20.6149 27.673 21.0279 30.0403C21.4328 32.3183 20.0601 34.4991 17.6913 35.4111C16.9868 35.6786 16.1932 35.6665 16.0717 36.842C16.0029 37.5757 13.1522 37.5027 13.0713 36.7407C12.9538 35.6624 12.2615 35.6543 11.5853 35.4517C10.4678 35.1366 9.51397 34.4037 8.92092 33.4047C8.48766 32.6669 7.49158 31.5927 8.51601 30.9969C9.28129 30.5591 10.658 30.2956 11.5772 31.5198C12.3343 32.5332 15.9826 32.8453 17.0272 32.1319C17.2965 31.9836 17.5123 31.7542 17.6439 31.4763C17.7755 31.1983 17.8161 30.8859 17.7601 30.5834C17.7087 30.209 17.5247 29.8655 17.2416 29.6156C16.9584 29.3656 16.5949 29.2257 16.2174 29.2215C15.1404 29.1688 14.0592 29.2215 12.9781 29.185C10.5487 29.0999 8.46743 27.3204 8.1192 25.1031C7.76288 22.7927 9.11123 20.6038 11.4516 19.6999C12.1481 19.4283 12.97 19.5093 13.0713 18.3095C13.1401 17.5758 15.9745 17.6366 16.0717 18.4028C16.2013 19.485 16.9099 19.4283 17.57 19.6634C18.2835 19.8886 18.9382 20.2693 19.4871 20.7781C20.0361 21.287 20.4654 21.9113 20.7444 22.6062C21.2627 23.8952 21.1493 24.6329 19.6633 24.2843Z" fill="#EAEAEA"/>
</g>
<defs>
<clipPath id="clip0_433_328">
<rect width="94" height="94" fill="white"/>
</clipPath>
</defs>
</svg>

<svg width="94" height="94" fill="none" xmlns="http://www.w3.org/2000/svg"><g clip-path="url(#a)"><path d="M19.436 13.725c0-2.432-.02-4.864.028-7.296.073-3.648 2.778-6.413 6.414-6.42a8247.77 8247.77 0 0 1 42.208 0c3.644 0 6.32 2.784 6.393 6.44.049 2.432.029 4.864.04 7.276-.218.835-.967 1.074-1.619 1.43-7.191 3.99-9.6 11.995-5.733 19.267a7.226 7.226 0 0 1 .81 4.864c-.288 1.573-.6 3.15-.774 4.808 1.11-.11 1.75-1.135 2.79-.876.72.766.28 1.5-.093 2.201a87.155 87.155 0 0 1-8.18 12.858c-.469.604-.81 1.447-1.821 1.35-.102-.09-.231-.187-.248-.309-.477-3.57-2.781-5.524-5.94-6.724-1.267-.843-2.935-1.078-3.822-2.51-.291-.729-.223-1.503-.25-2.265a4.206 4.206 0 0 1 .266-1.622c2.669-2.395 3.24-5.529 3.098-8.917.255-1.127.98-2.068 1.288-3.174.724-2.59-.458-4.313-3.122-4.362-4.086-.073-8.171 0-12.285-.024.052.81.59 1.066.94 1.435.769.81 1.1 1.735.497 2.748-.757 1.26-.36 2.307.454 3.324.157.3.234.635.226.973-.316 3.153.766 5.772 3.017 7.949.201.516.299 1.067.287 1.621-.028.778.053 1.573-.259 2.323-.98 1.48-2.757 1.743-4.097 2.675-4.074 1.56-5.734 4.512-5.35 8.84.22 2.396.203 2.558 2.726 2.566h14.888c.936 0 1.88-.08 2.794.215 1.332.9.166 1.537-.324 2.064a95.07 95.07 0 0 1-8.835 8.358 131.338 131.338 0 0 1-25.206 16.364c-1.036-1.277-1.214-2.773-1.214-4.354V41.378a.713.713 0 0 1 .684-.345c2.612.629 4.693 2.197 6.79 3.51a12.47 12.47 0 0 0-.376-1.791c-.87-3.55-.7-6.765.976-10.276 2.976-6.238-.02-13.781-6.143-17.125-.733-.41-1.66-.629-1.923-1.626Z" fill="#2ECC82"/><path d="M59.987 59.554c3.94-4.565 6.945-9.749 9.832-14.998.134-.375.209-.77.222-1.168 1.34-1.864 2.782-2.517 4.479-2.026 0 15.108-.011 30.214-.033 45.317 0 4.865-2.474 7.317-7.34 7.321H26.322c-2.385 0-4.332-.762-5.669-2.837.057-.86.81-1.002 1.381-1.297a125.63 125.63 0 0 0 25.49-17.228c2.79-2.456 5.385-5.075 7.94-7.754.453-.632 1.166-.69 1.822-.657 1.656.09 2.077-.81 2.024-2.25-.02-.838-.125-1.775.676-2.423Z" fill="#1BB16A"/><path d="M74.52 41.353c-1.83-.068-2.98 1.37-4.478 2.027-1.215.406-2.082 1.488-3.592 1.78.34-2.051.615-3.997.992-5.922.296-1.508.255-2.907-.583-4.265-4.604-7.462-1.215-17.158 6.402-20.591.429-.19.838-.406 1.259-.637 9.272-2.987 16.864 2.838 18.897 9.822 3.085 10.604-6.568 20.705-17.338 18.18-.523-.122-1.04-.26-1.56-.394Z" fill="#EAEAEA"/><path d="M19.435 13.725c6.296 2.732 9.742 7.414 9.718 14.406a11.818 11.818 0 0 1-1.996 6.676c-.98 1.44-.972 2.813-.66 4.374.404 1.954.668 3.928 1.036 6.161a514.947 514.947 0 0 0-6.074-3.336c-.631-.344-1.214-.928-2.024-.628C9.717 44.373 2.263 38.026.5 31.346a14.608 14.608 0 0 1 3.605-13.91 14.575 14.575 0 0 1 13.766-4.072l1.563.361Z" fill="#464646"/><path d="M59.987 59.554c-.02.202-.053.405-.056.6-.05 1.467.433 3.32-.28 4.292-.777 1.066-2.753.166-4.183.446-6.53-.024-13.058-.097-19.59-.028-1.51 0-2.089-.381-1.874-1.901.05-.74.05-1.482 0-2.222 0-4.957 1.288-6.765 6.05-8.512 1.056.272 1.62 1.151 2.239 1.913 1.324 1.59 1.51 1.622 2.931.166.375-.47.791-.907 1.243-1.305a1.149 1.149 0 0 1 1.081.24c2.454 2.29 2.454 2.285 4.86-.037.429-.406.81-.88 1.457-.981 3.608 1.143 6.03 3.263 6.122 7.329Z" fill="#383838"/><path d="M43.755 46.19c-3.43-2.104-3.442-5.448-3.24-8.878.426-.56 1.057-.551 1.653-.56a6.355 6.355 0 0 0 4.858-2.095c.928-1.005 1.956-1.11 3.037-.263 1.146.895 2.693 1.313 3.333 2.813.239 3.462.25 6.846-3.211 8.982a4.351 4.351 0 0 1-6.43 0Z" fill="#EFC27B"/><path d="M53.4 37.199c-.454-.292-.911-.572-1.36-.868-1.009-.669-1.936-1.597-3.046-1.958-1.413-.454-1.814 1.273-2.802 1.865-1.79 1.078-3.717 1.042-5.668 1.066-1.426-.9-1.895-2.006-.754-3.466.81-1.021.474-1.824-.461-2.545-.64-.495-1.215-1.046-1.778-1.508.349-.9.903-.596 1.296-.6 4.114-.024 8.228-.024 12.342 0 3.239 0 4.859 2.517 3.543 5.52-.36.872-.871 1.683-1.312 2.494Z" fill="#57575C"/><path d="M46.767 8.111c-2.15 0-4.3-.073-6.442.024-1.41.065-1.45-.689-1.474-1.747-.024-1.058.303-1.552 1.478-1.536 4.43.053 8.86.069 13.289 0 1.405-.02 1.45.693 1.47 1.751.02 1.058-.3 1.573-1.474 1.536-2.28-.077-4.563-.028-6.847-.028Z" fill="#E5E5E6"/><path d="m47.254 53.413-.693-.24c-1.55-.368-2.563-1.264-2.834-2.898l.06-2.452c2.112.164 4.234.164 6.345 0 .02.81.045 1.621.065 2.432-.263 1.727-1.437 2.594-2.944 3.158Z" fill="#EEC07A"/><path d="m43.738 50.271 2.835 2.898c-.26 1.302-1.438 1.865-2.227 2.724-.7.762-1.215.057-1.62-.425-.907-1.054-1.765-2.153-2.64-3.243l3.652-1.954Zm3.516 3.142 2.956-3.142 3.668 1.962c-.931 1.127-1.879 2.25-2.79 3.393-.623.774-1.186.701-1.801 0-.616-.701-1.353-1.484-2.033-2.213Z" fill="#FFF7F7"/><path d="M29.137 6.473c.284 1.379-.405 1.666-1.66 1.679-1.255.012-1.563-.438-1.587-1.622-.029-1.338.441-1.71 1.725-1.69 1.227.012 1.753.389 1.522 1.633Zm3.28-.214c-.25-1.375.656-1.338 1.68-1.415 1.495-.118 1.515.705 1.576 1.828.085 1.601-.911 1.394-1.932 1.46-1.49.097-1.372-.86-1.324-1.873Z" fill="#E5E5E6"/><path d="M50.143 47.819a6.53 6.53 0 0 1-6.345 0c0-.543-.028-1.087-.044-1.622a6.671 6.671 0 0 0 6.434 0c-.016.535-.032 1.079-.045 1.622Z" fill="#ECB55D"/><path d="M47.027 81.041c1.142 0 2.292-.077 3.426 0a3.197 3.197 0 0 1 2.988 3.215 3.155 3.155 0 0 1-3 3.198 60.156 60.156 0 0 1-7.05-.02c-1.741-.122-2.757-1.31-2.875-3.085a3.144 3.144 0 0 1 2.887-3.3c1.199-.097 2.418-.004 3.624-.008Z" fill="#E5E5E6"/><path d="M79.225 17.831c.866.037 1.862-.28 1.802 1.188-.029.632.728.458 1.13.584a4.782 4.782 0 0 1 2.74 1.95c.498.79 1.454 1.982.523 2.573-.72.458-2.26.811-3.15-.64-.587-.96-4.543-1.163-5.479-.45a1.478 1.478 0 0 0-.632 1.589 1.5 1.5 0 0 0 1.385 1.269c1.004.069 2.025.024 3.025.044 2.745.053 4.786 1.682 5.199 4.139.405 2.335-1.032 4.5-3.575 5.387-.612.215-1.251.194-1.284 1.184-.032 1.082-1.032.591-1.591.595-.559.004-1.547.475-1.55-.644 0-1.034-.734-.965-1.325-1.14a4.656 4.656 0 0 1-3.013-2.5c-.291-.608-.988-1.622-.283-1.958.838-.405 2.235-.722 2.94.243 1.53 2.088 3.563.985 5.373 1.022.745 0 1.215-.831 1.081-1.678a1.504 1.504 0 0 0-1.498-1.383c-1.073-.052-2.154 0-3.24-.036-2.567-.098-4.563-1.836-4.907-4.236-.328-2.286 1.065-4.394 3.494-5.27.673-.239 1.377-.23 1.397-1.321.049-.88.976-.34 1.438-.51Z" fill="#5C5C5C"/><path d="M19.663 24.284c-.984.098-1.62 0-2.202-.81-.685-.99-4.584-1.107-5.479-.337a1.43 1.43 0 0 0-.526 1.622 1.593 1.593 0 0 0 1.498 1.167c1.008.04 2.024 0 3.033.028 2.567.045 4.628 1.719 5.04 4.086.406 2.278-.967 4.46-3.336 5.371-.704.268-1.498.255-1.62 1.431-.068.734-2.919.66-3-.101-.117-1.079-.81-1.087-1.486-1.29a4.528 4.528 0 0 1-2.664-2.046c-.433-.738-1.43-1.812-.405-2.408.765-.438 2.142-.701 3.061.523.757 1.013 4.406 1.325 5.45.612a1.464 1.464 0 0 0 .733-1.549 1.577 1.577 0 0 0-1.543-1.361c-1.077-.053-2.158 0-3.239-.037-2.43-.085-4.51-1.865-4.859-4.082-.356-2.31.992-4.5 3.333-5.403.696-.272 1.518-.19 1.62-1.39.068-.734 2.903-.673 3 .093.13 1.082.838 1.025 1.498 1.26a5.06 5.06 0 0 1 3.174 2.943c.519 1.29.405 2.027-1.08 1.678Z" fill="#EAEAEA"/></g><defs><clipPath id="a"><path fill="#fff" d="M0 0h94v94H0z"/></clipPath></defs></svg>
